X:2550
T:Polska från Uppland
T:Svenska Folkdansar H4 nr 30
O:Uppland
B:Traditioner av Svenska Folkdansar Häfte 4, nr 30
B:Jämför [[http://www.smus.se/earkiv/fmk/browselarge.php?lang=sw&katalogid=Ma+17&bildnr=00016|SMUS - katalog Ma17 bild 16]] nr 48
B:Jämför [[http://www.smus.se/earkiv/fmk/browselarge.php?lang=sw&katalogid=MMD+31&bildnr=00035|SMUS - katalog MMD31 bild 35]] nr 43 från [[Platser/Berlin]], [[Platser/Tyskland]].
B: Jämför [[http://www.samlingarna.sormlandsspel.se/wp-content/uploads/2013/04/ramelius_carl.pdf|Carl Råmelius notbok]] (pdf) nr 48 sid 16
N:Se även [[Musik/1370|+]] och [[Musik/1431|+]]
R:Polska
Z:Nils L
U:w=wedge
U:t=tenuto
M:3/4
L:1/16
K:Bb
b4 f4 edcB | ABwcwA G4 F4 S| wG2wE2 wG2ed cBAG | wF2wD2 F2dc BAGF |
{F/}E2DC e2dc d2cB | (ABcd) c4 B4 ]] f4 c4 BAGF | =EFGE (D4 C4) |
c2BA B2g2 {B/}A2GF | (=EFGA) G4 F4 | [D4F4]>f4 edcB | F2Ac ([e2c2][B2d2]) ([B2d2][A2c2]) |
[D4F4]>f4 edcB | F2Ac ([c2e2][B2d2]) "^D.C. al Segno"([B2d2][c2A2]) |]
(:musicend:)
(:title Polska från Åland:)

(:music:)
